Papirus/24x24/apps/libreoffice-math.svg

<?xml version="1.0" encoding="UTF-8" standalone="no"?>
<!-- Created with Inkscape (http://www.inkscape.org/) -->

<svg
   width="24"
   height="24"
   viewBox="0 0 24 24"
   version="1.1"
   id="svg5"
   inkscape:version="1.2.2 (1:1.2.2+202305151914+b0a8486541)"
   sodipodi:docname="libreoffice-math.svg"
   xmlns:inkscape="http://www.inkscape.org/namespaces/inkscape"
   xmlns:sodipodi="http://sodipodi.sourceforge.net/DTD/sodipodi-0.dtd"
   xmlns="http://www.w3.org/2000/svg"
   xmlns:svg="http://www.w3.org/2000/svg">
  <sodipodi:namedview
     id="namedview7"
     pagecolor="#ffffff"
     bordercolor="#000000"
     borderopacity="0.25"
     inkscape:showpageshadow="2"
     inkscape:pageopacity="0.0"
     inkscape:pagecheckerboard="0"
     inkscape:deskcolor="#d1d1d1"
     inkscape:document-units="px"
     showgrid="false"
     inkscape:zoom="34.583333"
     inkscape:cx="12"
     inkscape:cy="12"
     inkscape:window-width="1920"
     inkscape:window-height="1008"
     inkscape:window-x="0"
     inkscape:window-y="0"
     inkscape:window-maximized="1"
     inkscape:current-layer="svg5" />
  <defs
     id="defs2" />
  <path
     d="m 15,2.5 h 5 v 5 z m -8,0 h 7 l 6,6 v 11 c 0,1.661998 -1.338,3 -3,3 H 7 c -1.662,0 -3,-1.338 -3,-3 v -14 c 0,-1.662 1.338,-3 3,-3 z"
     style="opacity:0.2;fill:#000000;fill-opacity:1;stroke-width:1.5;stroke-linecap:square"
     id="path900" />
  <path
     id="rect339"
     style="fill:#da477d;fill-opacity:1;stroke-width:1.5;stroke-linecap:square"
     d="m 7,2 h 7 l 6,6 v 11 c 0,1.661998 -1.338,3 -3,3 H 7 C 5.338,22 4,20.662 4,19 V 5 C 4,3.338 5.338,2 7,2 Z" />
  <path
     d="m 15,2 h 5 v 5 z"
     style="fill:#d12a67;fill-opacity:1;stroke-width:0.3125;stroke-linecap:square"
     id="path1087" />
  <path
     d="M 10.31836,9.5 8.30469,14.96875 7.48438,13.5 H 6 v 1 h 0.84766 l 1.21484,2 h 0.66992 l 2.29688,-6 H 18 v -1 z m 1.5918,2.62891 c -0.0853,0.33084 0.002,0.69695 0.26172,0.95703 l 1.16406,1.16406 0.25,-0.25 -1.41406,-1.41406 c -0.13166,-0.13166 -0.21856,-0.28953 -0.26172,-0.45703 z m 6.17968,0.002 c -0.0433,0.16672 -0.13062,0.32398 -0.26172,0.45508 L 16.41406,14 l 0.25,0.25 1.16406,-1.16406 c 0.2596,-0.2596 0.34619,-0.62472 0.26172,-0.95508 z M 15,15.41411 13.58594,16.82817 c -0.39174,0.39174 -1.02233,0.39174 -1.41406,0 -0.13166,-0.13165 -0.21856,-0.28952 -0.26172,-0.45703 -0.0853,0.33085 0.002,0.69697 0.26172,0.95703 0.39172,0.39174 1.02232,0.39174 1.41406,0 L 15,15.91406 l 1.41406,1.41406 c 0.39174,0.39174 1.02234,0.39174 1.41406,0 0.2596,-0.25958 0.34619,-0.62471 0.26172,-0.95507 -0.0433,0.16672 -0.13062,0.32398 -0.26172,0.45507 -0.39173,0.39174 -1.02231,0.39174 -1.41406,0 z M 6,18.5 v 1 h 2 v -1 z m 5,0 v 1 h 2 v -1 z m 5,0 v 1 h 2 v -1 z"
     style="opacity:0.2;fill:#000000;fill-opacity:1;stroke-width:0.985718"
     id="path6301" />
  <path
     d="M 10.31818,9 8.30396,14.469 7.484,13 H 6.00001 v 1.00001 H 6.847 L 8.06294,16 h 0.6699 l 2.29699,-6 H 18 V 9 Z"
     style="fill:#ffffff;fill-opacity:1;stroke-width:0.985718"
     id="path6273" />
  <path
     id="rect441"
     style="fill:#ffffff"
     d="m 6,18 v 1 h 2 v -1 z m 5,0 v 1 h 2 v -1 z m 5,0 v 1 h 2 v -1 z" />
  <path
     id="rect507"
     style="fill:#ef95b4;fill-opacity:1"
     d="m 17.82865,11.17158 c -0.39174,-0.39174 -1.02248,-0.39174 -1.41422,0 l -1.41421,1.41421 -1.41421,-1.41421 c -0.39174,-0.39174 -1.02248,-0.39174 -1.41422,0 -0.39173,0.39173 -0.39173,1.02247 0,1.41421 L 13.58601,14 12.17179,15.41422 c -0.39173,0.39173 -0.39173,1.02248 0,1.41421 0.39174,0.39174 1.02248,0.39174 1.41422,0 l 1.41421,-1.41421 1.41421,1.41421 c 0.39174,0.39174 1.02248,0.39174 1.41422,0 0.39173,-0.39173 0.39173,-1.02248 0,-1.41421 L 16.41443,14 17.82865,12.58579 c 0.39173,-0.39174 0.39173,-1.02248 0,-1.41421 z" />
  <path
     id="path1067"
     style="opacity:0.2;fill:#ffffff;fill-opacity:1;stroke-width:1.5;stroke-linecap:square"
     d="M 7,2 C 5.3380017,2 4,3.3380017 4,5 v 0.5 c 0,-1.6619983 1.3380017,-3 3,-3 h 7.5 L 14,2 Z m 8,0 0.5,0.5 H 20 V 2 Z" />
</svg>

<svg xmlns="http://www.w3.org/2000/svg" width="24" height="24" version="1.1">
 <path style="opacity:0.2" d="M 7,2.5 H 13 L 20,9.5 V 19.5 C 20,21.2 18.7,22.5 17,22.5 H 7 C 5.3,22.5 4,21.2 4,19.5 V 5.5 C 4,3.8 5.3,2.5 7,2.5 Z"/>
 <path style="fill:#da477d" d="M 7,2 H 13 L 20,9 V 19 C 20,20.7 18.7,22 17,22 H 7 C 5.3,22 4,20.7 4,19 V 5 C 4,3.3 5.3,2 7,2 Z"/>
 <path style="fill:#d12a67" d="m 15,2 h 5 v 5 z"/>
 <path style="opacity:0.2" d="M 6,18.5 V 19.5 H 8 V 18.5 Z M 11,18.5 V 19.5 H 13 V 18.5 Z M 16,18.5 V 19.5 H 18 V 18.5 Z M 10.32,9.5 8.3,14.97 7.48,13.5 H 6 V 14.5 H 6.85 L 8.06,16.5 H 8.73 L 11.03,10.5 H 18 V 9.5 Z"/>
 <path style="fill:#f8d3de" d="M 6,18 V 19 H 8 V 18 Z M 11,18 V 19 H 13 V 18 Z M 16,18 V 19 H 18 V 18 Z M 10.32,9 8.3,14.47 7.48,13 H 6 V 14 H 6.85 L 8.06,16 H 8.73 L 11.03,10 H 18 V 9 Z"/>
 <path style="fill:none;stroke:#000000;stroke-width:2;stroke-linecap:round;opacity:0.2" d="M 13,16.5 17,12.5 M 13,12.5 17,16.5"/>
 <path style="opacity:0.2;fill:#ffffff" d="M 15,2 15.5,2.5 H 20 V 2 Z"/>
 <path style="fill:#ffffff;opacity:0.2" d="M 7 2 C 5.3 2 4 3.3 4 5 L 4 5.5 C 4 3.8 5.3 2.5 7 2.5 L 13 2.5 L 20 9.5 L 20 9 L 13 2 L 7 2 z"/>
 <path style="fill:none;stroke:#fca7b2;stroke-width:2;stroke-linecap:round" d="M 13,16 17,12 M 13,12 17,16"/>
</svg>
